!!!!SEGMENT: pl-kk--kk-i-6--047-002_anonim--missa-conceptionis-et-in-terra.krn
!!!cenid: 16xx:1041
!!!COM: Anonim
!!!COM-rismID:
!!!CDT:
!!!CNT:
!!!OPR: Missa Conceptionis
!!!OTL: Et in terra
!!!OMV: 002
!!!PDT:
!!!AGN: Sacred; Mass
!!!SMS-siglum: PL-Kk
!!!SMS-shelfmark: Kk.I.6
!!!SMS-shelfwork: 047-002 M
!!!SMS-variant:
!!!SMS-altvar:
!!!NIFC-rismSourceID: 1001136539
!!!NIFC-islandoraID: pl-kk:1634
!!!URL-pdf-islandora: https://repozytorium.nifc.pl/islandora/object/pl-kk%3A1634/datastream/PDF/view
!!!URL-scan: https://polish.musicsources.pl/pl/lokalizacje/galeria/rekopisy/6133 @EN{Scan on Polish Music Herritage in Open Access Website} @PL{Skany w portalu Dziedzictwo Muzyki Polskiej w otwartym dostępie}
!!!ONB-nifc: UWAGA: C (skan 0069, s. 134-135), T (skan 0180-0181, s. 165-166), B (skan 0289, s. 160-161) Części Mszy: 1. Kyrie, 2. Et in terra, 3. Sanctus, 4. Agnus Dei
!!!AIN: 1 empty 1 tenor 1 vox
!!!key:
**kern	**text	**kern	**text	**text	**kern	**text
*part3	*part3	*part2	*part2	*part2	*part1	*part1
*staff3	*staff3	*staff2	*staff2	*staff2	*staff1	*staff1
*Iempty	*	*Itenor	*	*	*Ivox	*
*I"Baſsus.	*	*I"Tenor.	*	*	*I"Cantus.	*
*I'B	*	*I'T	*	*	*I'S	*
*clefF4	*	*clefC4	*	*	*clefC1	*
*k[b-]	*	*k[b-]	*	*	*k[b-]	*
*g:	*	*g:	*	*	*g:	*
*M2/1	*	*M2/1	*	*	*M2/1	*
*met(C|)	*	*met(C|)	*	*	*met(C|)	*
=1-	=1-	=1-	=1-	=1-	=1-	=1-
!LO:TX:b:t=Et in terra.	!	!	!	!	!	!
!LO:TX:t=P:problem=BB- scalone z kluczem, tylko w pierwszej linijce omyłkowo dopisany bemol e-	!	!LO:TX:b:t=Et in terra.	!	!	!LO:TX:t=P:problem=b- scalone z kluczem	!
00r	.	00r	.	.	2.g/	Et
!	!	!	!	!	!LO:TX:t=P:problem=kreska pseudotaktowa	!
.	.	.	.	.	4g/	in
.	.	.	.	.	2g/	ter-
!	!	!	!	!	!LO:TX:t=P:problem=kreska pseudotaktowa	!
.	.	.	.	.	2g/	-ra
=2-	=2-	=2-	=2-	=2-	=2-	=2-
.	.	.	.	.	4b-\	pax
.	.	.	.	.	4cc\	.
.	.	.	.	.	4dd\	.
.	.	.	.	.	8cc\L	.
!	!	!	!	!	!LO:TX:t=P:problem=kreska pseudotaktowa	!
.	.	.	.	.	8b-\J	.
*	*	*	*	*	*2\right	*
.	.	.	.	.	2cc\	.
.	.	.	.	.	2dd\	ho-
=3-	=3-	=3-	=3-	=3-	=3-	=3-
1r	.	1r	.	.	2dd\	-mi-
!	!	!	!	!	!LO:TX:t=P:problem=kreska pseudotaktowa	!
.	.	.	.	.	2cc\	-ni-
2r	.	2r	.	.	2dd\	-bus
*2\right	*	*	*	*	*	*
!	!	!	!	!	!LO:TX:t=P:problem=kreska pseudotaktowa	!
2G\	Bo-	2G/	Bo-	.	2b-\	bo-
=4-	=4-	=4-	=4-	=4-	=4-	=4-
*	*	*2\right	*	*	*	*
2G\	-ae	2B-\	-nae	.	2b-\	-nae
2G\	vo-	2B-\	vo-	.	2b-\	vo-
!	!	!	!	!	!LO:LB:g=original	!
2F\	-lun-	2c\	-lun-	.	2a\	-lun-
4E\	-ta-	1d\	-ta-	.	4g/	-ta-
!	!	!	!	!	!LO:TX:b:t=P:problem=♯ below	!
4D/	.	.	.	.	4f#X/	.
=5-	=5-	=5-	=5-	=5-	=5-	=5-
!	!	!	!	!	!LO:TX:t=P:problem=kreska pseudotaktowa	!
1E-X	.	.	.	.	1g	.
.	.	2c\	.	.	.	.
!LO:TX:t=P:global:problem=rozdzielacz słów	!	!	!	!	!	!
2D,</	tis	2d\	-tus	.	2f#X/	-tis
!	!	!	!	!	!LO:TX:t=P:problem=kreska pseudotaktowa	!
2D/	Lau-	2A/	Lau-	.	2f#/	Lau-
=6-	=6-	=6-	=6-	=6-	=6-	=6-
1G	-da-	1B-	-da-	.	2g/	-da-
.	.	.	.	.	1b-	.
!LO:LB:g=original	!	!	!	!	!	!
1F	-mus	1c	-mus	.	.	.
!	!	!	!	!	!LO:TX:t=P:problem=kreska pseudotaktowa	!
.	.	.	.	.	2a\	-mus
=7-	=7-	=7-	=7-	=7-	=7-	=7-
!	!	!	!	!	!LO:TX:t=P:global:problem=rozdzielacz słów	!
2BB-,</	Te,	2B-\	Te	.	2b-,<\	Te
!	!	!	!	!	!LO:TX:t=P:problem=kreska pseudotaktowa	!
2BB-/	be-	2d\	be-	.	2b-\	be-
2BB-/	-ne-	2d\	-ne-	.	2b-\	-ne-
!	!	!LO:LB:g=original	!	!	!LO:TX:t=P:problem=kreska pseudotaktowa	!
2BB-/	-di-	2d\	-di-	.	2b-\	-di-
=8-	=8-	=8-	=8-	=8-	=8-	=8-
2F\	-ci-	2c\	-ci-	.	2a\	-ci-
!	!	!	!	!	!LO:TX:t=P:problem=kreska pseudotaktowa	!
2G\	-mus	2B-\	-mus	.	2g/	-mus
2D/	Te	2A/	Te	.	2f#X/	Te
1D\	a-	1A\	a-	.	1fn/	a-
=9-	=9-	=9-	=9-	=9-	=9-	=9-
.	.	.	.	.	.	.
!	!	!	!	!	!LO:TX:t=P:problem=kreska pseudotaktowa	!
2BB-/	-do-	2B-\	-do-	.	2f/	-do-
!	!	!	!	!	!LO:LB:g=original	!
2C/	-ra-	2G/	-ra-	.	2e-X/	-ra-
!	!	!	!	!	!LO:TX:t=P:problem=kreska pseudotaktowa	!
2C/	-mus	2G/	-mus	.	2e-/	-mus
=10-	=10-	=10-	=10-	=10-	=10-	=10-
!LO:TX:t=P:problem=kreska pseudotaktowa	!	!	!	!	!	!
1D	Te	2F/	Te	.	2d,</	Te
!	!	!	!	!	!LO:TX:t=P:problem=kreska pseudotaktowa	!
.	.	2A/	glo-	.	2f/	glo-
!LO:TX:t=P:problem=kreska pseudotaktowa	!	!	!	!	!	!
1r	.	2B-\	-ri-	.	2g/	-ri-
!	!	!	!	!	!LO:TX:t=P:problem=kreska pseudotaktowa	!
.	.	2c\	-fi-	.	2a\	-fi-
=11-	=11-	=11-	=11-	=11-	=11-	=11-
*	*	*lig	*	*	*	*
2r	.	1d	-ca-	.	4b-\	-ca-
.	.	.	.	.	2a\	.
!LO:TX:t=P:problem=kreska pseudotaktowa	!	!	!	!	!	!
2D/	glo-	.	.	.	.	.
.	.	.	.	.	8g/L	.
!	!	!	!	!	!LO:TX:t=P:problem=kreska pseudotaktowa	!
.	.	.	.	.	8f/J	.
2Eny\	-ri-	1c	.	.	2g/	.
!LO:TX:t=P:problem=kreska pseudotaktowa	!	!	!	!	!	!
2F\	-fi-	.	.	.	1a\	.
*	*	*Xlig	*	*	*	*
=12-	=12-	=12-	=12-	=12-	=12-	=12-
2G\	-ca-	2B-\	.	.	.	.
!LO:LB:g=original	!	!	!	!	!	!
2E-X\	-mus	4A/	.	.	1g	.
.	.	4G/	.	.	.	.
1D	Te.	1A	-mus	.	.	.
!	!	!	!	!	!LO:TX:t=P:problem=kreska pseudotaktowa	!
.	.	.	.	.	2f#X/	-mus
=13-	=13-	=13-	=13-	=13-	=13-	=13-
2rC	.	2G/	Te	.	0g	Te
!	!	!LO:PB:g=original	!	!	!	!
2.G\	Gra-	2.B-\	Gra-	.	.	.
4G\	-ti-	4B-\	-ti-	.	.	.
!LO:TX:t=P:problem=kreska pseudotaktowa	!	!	!	!	!	!
2G\	-as	2B-\	-as	.	.	.
=14-	=14-	=14-	=14-	=14-	=14-	=14-
2F\	a-	2A/	a-	.	0r	.
!LO:TX:t=P:problem=kreska pseudotaktowa	!	!	!	!	!	!
2E-X\	-gi-	2G/	-gi-	.	.	.
2D/	-mus	2A/	-mus	.	.	.
2G\	Ti-	2B-\	Ti-	.	.	.
=15-	=15-	=15-	=15-	=15-	=15-	=15-
2F\	-bi	1c	-bi	.	2r	.
!	!	!	!	!	!LO:TX:t=P:problem=kreska pseudotaktowa	!
1F	p(ro)-	.	.	.	2a\	p(ro)-
.	.	2r	.	.	2a\	-p(te)r
!LO:TX:t=P:problem=kreska pseudotaktowa	!	!	!	!	!	!
2C/	-p(te)r	2c\	pro-	.	2g/	ma-
!	!	!	!	!	!LO:LB:g=original	!
=16-	=16-	=16-	=16-	=16-	=16-	=16-
!	!	!	!	!	!LO:TX:t=P:problem=kreska pseudotaktowa	!
(4F\	ma-	2c\	-pter	.	1a	-gnam
4Eny\	.	.	.	.	.	.
4F\	.	2c\	ma-	.	.	.
!LO:TX:t=P:problem=kreska pseudotaktowa	!	!	!	!	!	!
4G\)	.	.	.	.	.	.
2A\	-gnam	1.c	-gnam	.	2.a\	glo-
2A\	glo-	.	.	.	.	.
!	!	!	!	!	!LO:TX:t=P:problem=kreska pseudotaktowa	!
.	.	.	.	.	4g/	-ri-
=17-	=17-	=17-	=17-	=17-	=17-	=17-
2F\	-ri-	.	.	.	2a\	-am
!LO:LB:g=original	!	!	!	!	!	!
2D/	-am	1d	glo-	.	2.b-\	Tu-
*lig	*	*	*	*	*	*
1F	Tu-	.	.	.	.	.
.	.	.	.	.	4a\	.
.	.	2c\	-ri-	.	1a\	.
=18-	=18-	=18-	=18-	=18-	=18-	=18-
1G	.	2B-\	-am	.	.	.
!	!	!	!	!	!LO:TX:t=P:problem=kreska pseudotaktowa	!
.	.	2B-\	Tu-	.	2g/	.
*Xlig	*	*	*	*	*	*
!LO:TX:t=P:problem=kreska pseudotaktowa	!	!	!	!	!	!
1D	-am	1A	-am	.	2a\	-am
.	.	.	.	.	1dd\	Do-
!	!	!LO:LB:g=original	!	!	!	!
=19-	=19-	=19-	=19-	=19-	=19-	=19-
0r	.	2.B-\	Do-	.	.	.
!	!	!	!	!	!LO:TX:t=P:problem=kreska pseudotaktowa	!
.	.	.	.	.	2dd\	-mi-
.	.	4B-\	-mi-	.	.	.
.	.	2A/	-ne	.	2cc\	-ne
!	!	!	!	!	!LO:TX:t=P:problem=kreska pseudotaktowa	!
.	.	2G/	De-	.	2b-\	De-
=20-	=20-	=20-	=20-	=20-	=20-	=20-
2r	.	2d\	-us	.	2a\	-us
!LO:TX:t=P:problem=kreska pseudotaktowa	!	!	!	!	!LO:TX:t=P:problem=kreska pseudotaktowa	!
2D/	Rex	2d\	Rex	.	2a\	Rex
2F\	Cae-	2c\	Cae-	.	2a\	Cae-
2G\	-le-	2B-\	-le-	.	2g/	-le-
=21-	=21-	=21-	=21-	=21-	=21-	=21-
2D/	-stis	2A/	-stiſ	.	0fny	-stiſ
!LO:TX:t=P:problem=kreska pseudotaktowa	!	!	!	!	!	!
2D/	De-	2A/	De-	.	.	.
2D/	-us	2A/	-us	.	.	.
!LO:TX:t=P:problem=kreska pseudotaktowa	!	!	!	!	!	!
2D/	Pa-	2F/	Pa-	.	.	.
=22-	=22-	=22-	=22-	=22-	=22-	=22-
2C/	-ter	2G/	-ter	.	0r	.
!LO:TX:t=P:problem=kreska pseudotaktowa	!	!	!	!	!	!
2BB-/	o-	2B-\	o-	.	.	.
2.C/	-mni-	2B-\	-mni-	.	.	.
.	.	2A/	-po-	.	.	.
!LO:TX:t=P:problem=kreska pseudotaktowa	!	!	!	!	!	!
4C/	-po-	.	.	.	.	.
!	!	!	!	!	!LO:LB:g=original	!
=23-	=23-	=23-	=23-	=23-	=23-	=23-
2BB-,</	-tens	2B-\	-tens.	.	2r	.
!	!	!LO:LB:g=original	!	!	!	!
1BB-	Do-	1d	Do-	.	1b-	Do-
!LO:TX:t=P:problem=kreska pseudotaktowa	!	!	!	!	!LO:TX:t=P:problem=kreska pseudotaktowa	!
2BB-/	-mi-	2d\	-mi-	.	2b-\	-mi-
!LO:LB:g=original	!	!	!	!	!	!
=24-	=24-	=24-	=24-	=24-	=24-	=24-
2F\	-ne	2c\	-ne	.	2a\	-ne
!	!	!	!	!	!LO:TX:t=P:problem=kreska pseudotaktowa	!
2F\	Fi-	2c\	Fi-	.	2a\	Fi-
2C/	-li	2c\	-li	.	2g/	-li
1D\	u-	1A\	u-	.	1f/	u-
=25-	=25-	=25-	=25-	=25-	=25-	=25-
.	.	.	.	.	.	.
!LO:TX:t=P:problem=kreska pseudotaktowa	!	!	!	!	!LO:TX:t=P:problem=kreska pseudotaktowa	!
2GG/	-ni-	2B-\	-ni-	.	2g/	-ni-
2AA/	-ge-	2.A/	-ge-	.	2en/	-ge-
!	!	!	!	!	!LO:TX:t=P:problem=kreska pseudotaktowa	!
2AA/	-ni-	.	.	.	2e/	-ni-
.	.	4A/	-ni-	.	.	.
=26-	=26-	=26-	=26-	=26-	=26-	=26-
2D/	-te	2F/	-te	.	2d,</	-te
1GG	Je-	1G	Je-	.	1b-	Je-
!LO:TX:t=P:problem=kreska pseudotaktowa	!	!	!	!	!LO:TX:t=P:problem=kreska pseudotaktowa	!
2D/	-su	2F/	-su	.	2a\	-su
=27-	=27-	=27-	=27-	=27-	=27-	=27-
1E-X	Chri-	1G	Chri-	.	1g	Chri-
!LO:TX:t=P:problem=kreska pseudotaktowa	!	!	!	!	!LO:TX:t=P:problem=kreska pseudotaktowa	!
1D	-ste	2A/	-ste	.	1f	-ste
.	.	2.A/	Do-	.	.	.
=28-	=28-	=28-	=28-	=28-	=28-	=28-
2.D/	Do-	.	.	.	2r	.
.	.	4A/	-mi-	.	.	.
.	.	2A/	-ne	.	2.f/	Do-
!LO:TX:t=P:problem=kreska pseudotaktowa	!	!	!	!	!	!
4D/	-mi-	.	.	.	.	.
2D/	-ne	2B-\	De-	.	.	.
.	.	.	.	.	4f/	-mi-
!LO:TX:t=P:problem=kreska pseudotaktowa	!	!	!	!	!LO:TX:t=P:problem=kreska pseudotaktowa	!
2F\	De-	2A/	-us	.	2f/	-ne
!	!	!LO:LB:g=original	!	!	!LO:PB:g=original	!
=29-	=29-	=29-	=29-	=29-	=29-	=29-
2Eny\	-us.	2G/	A-	.	2g/	De-
!LO:PB:g=original	!	!	!	!	!LO:TX:t=P:problem=kreska pseudotaktowa	!
2D/	A-	2.A/	.	.	2f/	-us
2C/	-gnus	.	.	.	2e/	A-
.	.	4G/	.	.	.	.
2.D/	De-	4F/	.	.	1f/	-gnus
.	.	4E/	.	.	.	.
=30-	=30-	=30-	=30-	=30-	=30-	=30-
.	.	2D/	-gnus	.	.	.
4C/	.	.	.	.	.	.
!LO:TX:t=P:problem=kreska pseudotaktowa	!	!	!	!	!LO:TX:t=P:problem=kreska pseudotaktowa	!
2BB-/	.	1G	De-	.	2g/	De-
1AA	.	.	.	.	1a	-i
.	.	2F#X/	-[[i]]-	.	.	.
=31-	=31-	=31-	=31-	=31-	=31-	=31-
!	!	!	!	!	!LO:TX:t=P:problem=kreska pseudotaktowa	!
2GG/	i	2G/	-i	.	1b-	Fi-
1G	Fi-	1B-	Fi-	.	.	.
.	.	.	.	.	2g/	-li-
!LO:TX:t=P:problem=kreska pseudotaktowa	!	!	!	!	!	!
2G\	-li-	2G/	-li-	.	2b-\	-us
=32-	=32-	=32-	=32-	=32-	=32-	=32-
2F\	-us	2c\	-us	.	2a\	Pa-
2G\	Pa-	2B-\	Pa-	.	1g	.
1D	.	1A	-tris.	.	.	.
!	!	!	!	!	!LO:TX:t=P:problem=kreska pseudotaktowa	!
.	.	.	.	.	2f#X/	.
=33-	=33-	=33-	=33-	=33-	=33-	=33-
!LO:TX:t=P:problem=kreska pseudotaktowa	!	!	!	!	!	!
0GG	-tris	2rF	.	.	2g,</	-tris.
.	.	2G/	Qui	.	2g,</	qui
.	.	2G/	tol-	.	2g/	tol-
!	!	!	!	!	!LO:TX:t=P:problem=kreska pseudotaktowa	!
.	.	2G/	-lis	.	2g/	-lis
=34-	=34-	=34-	=34-	=34-	=34-	=34-
0rD	.	2A/	pec-	.	2fn/	pec-
!	!	!	!	!	!LO:TX:t=P:problem=kreska pseudotaktowa	!
.	.	2B-\	-ca-	.	2d/	-ca-
!	!	!LO:LB:g=original	!	!	!	!
.	.	2A/	-ta	.	2f/	-ta
!	!	!	!	!	!LO:LB:g=original	!
!	!	!	!	!	!LO:TX:t=P:problem=kreska pseudotaktowa	!
.	.	2A/	mun-	.	2en/	mun-
=35-	=35-	=35-	=35-	=35-	=35-	=35-
2rC	.	2D/	-di	.	2d/	-di
1G	mi-	2d\	mi-	.	1b-	mi-
.	.	2d\	-se-	.	.	.
!LO:TX:t=P:problem=kreska pseudotaktowa	!	!	!	!	!LO:TX:t=P:problem=kreska pseudotaktowa	!
2G\	-se-	2B-\	-re-	.	2b-\	-se-
=36-	=36-	=36-	=36-	=36-	=36-	=36-
2A\	-re-	2c\	-re	.	2a\	-re-
2B-\	-re	1d	no-	.	2g/	-re
!	!	!	!	!	!LO:TX:t=P:problem=kreska pseudotaktowa	!
1A	no-	.	.	.	1a	no-
.	.	2c\	.	.	.	.
=37-	=37-	=37-	=37-	=37-	=37-	=37-
!LO:TX:t=P:problem=kreska pseudotaktowa	!	!	!	!	!	!
1D	-biſ	2d\	-bis.	.	2a\	-bis.
!	!	!	!	!	!LO:TX:t=P:problem=kreska pseudotaktowa	!
.	.	2D/	Qui	.	2dd\	qui
!LO:LB:g=original	!	!	!	!	!	!
0r	.	2D/	tol-	.	2dd\	tol-
!	!	!	!	!	!LO:TX:t=P:problem=kreska pseudotaktowa	!
.	.	2D/	-liſ	.	2dd\	-lis
=38-	=38-	=38-	=38-	=38-	=38-	=38-
.	.	2A/	pec-	.	2cc\	pec-
!	!	!	!	!	!LO:TX:t=P:problem=kreska pseudotaktowa	!
.	.	2Fny/	-ca-	.	2a\	-ca-
!LO:TX:t=P:problem=kreska pseudotaktowa	!	!	!	!	!	!
1r	.	2G/	-ta	.	2b-\	-ta
!	!	!	!	!	!LO:TX:t=P:problem=kreska pseudotaktowa	!
.	.	2G/	mun-	.	2b-\	mun-
=39-	=39-	=39-	=39-	=39-	=39-	=39-
2r	.	2D/	-di	.	2a\	-di
!	!	!LO:LB:g=original	!	!	!	!
1D	Sus-	1A	Sus-	[[mi-	1f	Sus-
!	!	!	!	!	!LO:TX:t=P:problem=kreska pseudotaktowa	!
2D/	-ci-	2A/	-ci-	-se-	2f/	-ci-
=40-	=40-	=40-	=40-	=40-	=40-	=40-
!LO:TX:t=P:problem=kreska pseudotaktowa	!	!	!	!	!	!
1D	-pe	2A/	-pe	-re-	1f	-pe
.	.	2F/	de-	-re]]	.	.
!	!	!	!	!	!LO:LB:g=original	!
2rGG	.	2G/	-pre-	.	0rf	.
!LO:TX:t=P:problem=kreska pseudotaktowa	!	!	!	!	!	!
2BB-/	de-	2B-\	-ca-	.	.	.
=41-	=41-	=41-	=41-	=41-	=41-	=41-
2C/	-pre-	2A/	-ti-	.	.	.
!LO:TX:t=P:problem=kreska pseudotaktowa	!	!	!	!	!	!
2E-X\	-ca-	2G/	-o-	.	.	.
2D/	-ti-	2F/	-nem	.	1rg	.
2BB-/	-o-	1B-\	no-	.	.	.
=42-	=42-	=42-	=42-	=42-	=42-	=42-
2F\	-nem	.	.	.	2re	.
!	!	!	!	!	!LO:TX:t=P:problem=kreska pseudotaktowa	!
2F\	no-	2A/	.	.	2f/	qui
!LO:TX:t=P:problem=kreska pseudotaktowa	!	!	!	!	!	!
1BB-	-stram	2B-\	-stram	.	2f/	se-
!	!	!	!	!	!LO:TX:t=P:problem=kreska pseudotaktowa	!
.	.	2D/	Qui	.	2f/	-des
=43-	=43-	=43-	=43-	=43-	=43-	=43-
!LO:TX:t=P:problem=kreska pseudotaktowa	!	!	!	!	!	!
00r	.	2E/	Se-	.	2g/	ad
.	.	1G	-des	.	1b-	dex-
!	!	!	!	!	!LO:TX:t=P:problem=kreska pseudotaktowa	!
.	.	2F/	ad	.	2a\	-te-
=44-	=44-	=44-	=44-	=44-	=44-	=44-
.	.	2G/	dex-	.	2g/	-ram
!	!	!	!	!	!LO:TX:t=P:problem=kreska pseudotaktowa	!
.	.	2D/	-te-	.	2f/	Pa-
!	!	!LO:LB:g=original	!	!	!	!
.	.	2A/	-ram	.	2e/	-tris
.	.	2A/	Pa-	.	2e/	mi-
=45-	=45-	=45-	=45-	=45-	=45-	=45-
2rBB	.	1D	-tris	.	4f/	-se-
.	.	.	.	.	4e/	.
2D\	mi-	.	.	.	4f/	.
!	!	!	!	!	!LO:TX:t=P:problem=kreska pseudotaktowa	!
.	.	.	.	.	4g/	.
2F\	-se-	0rF	.	.	2a\	.
1G\	-re-	.	.	.	1b-\	-re-
=46-	=46-	=46-	=46-	=46-	=46-	=46-
.	.	.	.	.	.	.
!	!	!	!	!	!LO:TX:t=P:problem=kreska pseudotaktowa	!
2F\	-re	.	.	.	2a\	-re
1G	no-	2r	.	.	1b-	no-
.	.	2.d\	Quo-	.	.	.
=47-	=47-	=47-	=47-	=47-	=47-	=47-
!	!	!	!	!	!LO:TX:t=P:problem=kreska pseudotaktowa	!
1D	-biſ.	.	.	.	1a	-bis
.	.	4d\	-ni-	.	.	.
.	.	2d\	-am	.	.	.
!LO:LB:g=original	!	!	!	!	!LO:LB:g=original	!
2rBB	.	2c\	Tu	.	2r	.
2.BB-/	Quo-	1B-\	So-	.	2.dd\	Quo-
=48-	=48-	=48-	=48-	=48-	=48-	=48-
.	.	.	.	.	.	.
4BB-/	-ni-	.	.	.	4dd\	-ni-
!LO:TX:t=P:problem=kreska pseudotaktowa	!	!	!	!	!LO:TX:t=P:problem=kreska pseudotaktowa	!
2BB-/	-am	4A/	.	.	2dd\	-am
.	.	4G/	.	.	.	.
2F\	Tu	2A/	.	.	2cc\	Tu
!	!	!	!	!	!LO:TX:t=P:problem=kreska pseudotaktowa	!
2G\	So-	2G/	.	.	2b-\	So-
=49-	=49-	=49-	=49-	=49-	=49-	=49-
2D/	-lus	2F/	-lus	.	2a\	-lus
2BB-/	ſan-	1G	ſan-	.	4g/	ſan-
!	!	!	!	!	!LO:TX:t=P:problem=kreska pseudotaktowa	!
.	.	.	.	.	4f/	.
2C/	.	.	.	.	4e/	.
.	.	.	.	.	4d/	.
2D/	.	2F/	.	.	1d/	.
=50-	=50-	=50-	=50-	=50-	=50-	=50-
!LO:TX:t=P:problem=kreska pseudotaktowa	!	!	!	!	!	!
1AA	-ctus	1En	.	.	.	.
!	!	!	!	!	!LO:TX:t=P:problem=kreska pseudotaktowa	!
.	.	.	.	.	2c#X/	.
2rBB	.	2D/	-ctus	.	2d/	-ctus
!	!	!	!	!	!LO:TX:t=P:problem=kreska pseudotaktowa	!
2D/	Tu	2A/	Tu	.	2f/	Tu
=51-	=51-	=51-	=51-	=51-	=51-	=51-
2D/	so-	2A/	So-	.	2f/	So-
!LO:TX:t=P:problem=kreska pseudotaktowa	!	!LO:LB:g=original	!	!	!LO:TX:t=P:problem=kreska pseudotaktowa	!
2D/	-lus	2A/	-lus	.	2f/	-lus
2G\	Do-	2B-\	Do-	.	2.g/	D(o-
2E-X\	-mi-	2G/	-mi-	.	.	.
!	!	!	!	!	!LO:TX:t=P:problem=kreska pseudotaktowa	!
.	.	.	.	.	4g/	-mi)-
=52-	=52-	=52-	=52-	=52-	=52-	=52-
2D/	-nus	2A/	-nus	.	2f/	-nus
!	!	!	!	!	!LO:LB:g=original	!
1BB-	Tu	1B-	Tu	.	1f	Tu
!	!	!	!	!	!LO:TX:t=P:problem=kreska pseudotaktowa	!
2BB-/	so-	2B-\	so-	.	2f/	So-
!LO:LB:g=original	!	!	!	!	!	!
=53-	=53-	=53-	=53-	=53-	=53-	=53-
2E-X\	-lus	2B-\	-lus	.	2g/	-lus
!	!	!	!	!	!LO:TX:t=P:problem=kreska pseudotaktowa	!
2BB-/	al-	2B-\	al-	.	2f/	al-
2F\	-tiſ-	2A/	-tiſ-	.	2f/	-tiſ-
!	!	!	!	!	!LO:TX:t=P:problem=kreska pseudotaktowa	!
2F\	-si-	2A/	-si-	.	2f/	-si-
=54-	=54-	=54-	=54-	=54-	=54-	=54-
2BB-/	-mus	2.B-\	-mus	.	2d/	-mus
1B-	Je-	.	.	.	1dd	Je-
.	.	8A/L	.	.	.	.
.	.	8G/J	.	.	.	.
.	.	2F/	.	.	.	.
2A\	-su	2F/	Je-	.	2.cc\	.
=55-	=55-	=55-	=55-	=55-	=55-	=55-
*lig	*	*	*	*	*	*
1G	Chri-	1B-	-su	.	.	.
.	.	.	.	.	4b-\	-ſu
.	.	.	.	.	1b-	Chri-
1F	.	1c	Chri-	.	.	.
!	!	!	!	!	!LO:TX:t=P:problem=kreska pseudotaktowa	!
.	.	.	.	.	2a\	.
*Xlig	*	*	*	*	*	*
=56-	=56-	=56-	=56-	=56-	=56-	=56-
!LO:TX:t=P:problem=kreska pseudotaktowa	!	!	!	!	!	!
0G	-ste	1B-	-ste	.	2b-\	-ſte
!	!	!	!	!	!LO:TX:t=P:problem=kreska pseudotaktowa	!
.	.	.	.	.	2g/	Cum
.	.	2r	.	.	4b-\	ſan-
.	.	.	.	.	4cc\	.
.	.	2G/	Cum	.	4dd\	.
.	.	.	.	.	8cc\L	.
!	!	!	!	!	!LO:TX:t=P:problem=kreska pseudotaktowa	!
.	.	.	.	.	8b-\J	.
!	!	!LO:PB:g=original	!	!	!	!
=57-	=57-	=57-	=57-	=57-	=57-	=57-
!LO:TX:t=P:problem=kreska pseudotaktowa	!	!	!	!	!	!
0r	.	2A/	ſan-	.	2cc\	.
!	!	!	!	!	!LO:LB:g=original	!
!	!	!	!	!	!LO:TX:t=P:problem=kreska pseudotaktowa	!
.	.	2B-\	-cto	.	2dd\	-cto
.	.	2A/	Spi-	.	2dd\	Spi-
.	.	2A/	-ri-	.	2cc\	-ri-
=58-	=58-	=58-	=58-	=58-	=58-	=58-
1G	Cum	2B-\	-tu	.	2dd,<\	-tu
!	!	!	!	!	!LO:TX:t=P:problem=kreska pseudotaktowa	!
.	.	2G/	Cum	.	2b-\	Cum
2G\	ſan-	4B-\	ſan-	.	2g/	ſan-
.	.	4c\	.	.	.	.
!	!	!	!	!	!LO:TX:t=P:problem=kreska pseudotaktowa	!
2G\	-cto	4d\	.	.	2b-\	-cto
.	.	8c\L	.	.	.	.
.	.	8B-\J	.	.	.	.
=59-	=59-	=59-	=59-	=59-	=59-	=59-
2F\	Spi-	2c\	.	.	2a\	Spi-
4E-X\	.	2d\	-cto	.	4g/	.
!	!	!	!	!	!LO:TX:t=P:problem=kreska pseudotaktowa	!
4D\	.	.	.	.	4f/	.
2.E-\	.	2d\	Spi-	.	2.g/	.
.	.	2c\	-ri-	.	.	.
!	!	!	!	!	!LO:TX:t=P:problem=kreska pseudotaktowa	!
4E-\	-ri-	.	.	.	4g/	-ri-
=60-	=60-	=60-	=60-	=60-	=60-	=60-
1D	-tu	2d\	-tu	.	2f,</	-tu
!	!	!	!	!	!LO:TX:t=P:problem=kreska pseudotaktowa	!
.	.	2A/	in	.	2f/	in
!LO:LB:g=original	!	!	!	!	!	!
0r	.	2B-\	glo-	.	4g\	glo-
.	.	.	.	.	4a\	.
.	.	2c\	.	.	1b-\	.
=61-	=61-	=61-	=61-	=61-	=61-	=61-
.	.	2.d\	.	.	.	.
!	!	!	!	!	!LO:TX:t=P:problem=kreska pseudotaktowa	!
.	.	.	.	.	2a\	-ri-
.	.	4d\	-ri-	.	.	.
!	!	!LO:LB:g=original	!	!	!	!
2rBB	.	2c\	-a	.	2b-\	-a
!	!	!	!	!	!LO:LB:g=original	!
2BB-/	in	2d\	De-	.	2.b-\	De-
=62-	=62-	=62-	=62-	=62-	=62-	=62-
2BB-/	glo-	2d\	-i	.	.	.
.	.	.	.	.	4b-\	-i
2C/	-ri-	4c\	Pa-	.	4a\	Pa-
!	!	!	!	!	!LO:TX:t=P:problem=kreska pseudotaktowa	!
.	.	4B-\	.	.	4g\	-tris
2.D/	-a	2A/	tris	.	2.f\	A-
.	.	2.d\	A-	.	.	.
!	!	!	!	!	!LO:TX:t=P:problem=kreska pseudotaktowa	!
4Eny\	.	.	.	.	4g\	.
=63-	=63-	=63-	=63-	=63-	=63-	=63-
2F\	.	.	.	.	2a\	.
.	.	4c\	.	.	.	.
2G\	De-	4B-\	.	.	2.b-\	.
.	.	4A\	.	.	.	.
4G\	-i	2B-\	.	.	.	.
4F\	.	.	.	.	4a\	.
4E\	Pa-	2.c\	.	.	4g/	.
!	!	!	!	!	!LO:TX:t=P:problem=kreska pseudotaktowa	!
4D/	.	.	.	.	4f/	.
=64-	=64-	=64-	=64-	=64-	=64-	=64-
2C/	.	.	.	.	4e/	.
.	.	4B-\	.	.	4d/	.
2E-X\	tris	4A/	.	.	1g	.
.	.	4G/	.	.	.	.
1D	A-	1A	.	.	.	.
.	.	.	.	.	2f#X/	.
=65-	=65-	=65-	=65-	=65-	=65-	=65-
!	!	!	!LO:TX:a:t=P:problem=brak kreski końcowej	!	!LO:TX:a:t=P:problem=brak kreski końcowej	!
0GG;	-men.	0G;;	-men.	.	0gl;;	-men.
==	==	==	==	==	==	==
*-	*-	*-	*-	*-	*-	*-
!!!system-decoration: [s1,s2,s3]
!!!RDF**kern: < = below
!!!RDF**kern: l = terminal long
!!!ENC: Marta Lawrence
!!!END: 2021-03-24
!!!ENC: Andrzej Kubiczek
!!!END: 2021-03-10
